X:11877
T: Walzer  BbEb (wz02106)
S:Hanny Christen. Bd.II  St. Gallen II, Graubünden, Tessin. S.318 (wz02106) orig. Bb,Eb
S: Graubünden. Gla Genua, Sent. S.299-329. Überliefert vermutlich durch Nott Caviezel
O:Switzerland
%%MIDI program 21
P:ABAC
R:Walzer
M:3/4
L:1/4
K:Bb %%MIDI gchordon
f | [P:A] {/a}"Bb"g2f | {/a}g2f | (b3 | d3) | FBd | c'zb | ("Cm"c3 | c)zc | 
{/e}d2c | {/e}d2c | ("F7"g3 | A3) | FAc | eg>f | ("Bb"d3 | d)zf | {/a}g2f |
 {/a}g2f | (b3 | d3) | def | "G7"g2d | ("Cm"e3 | e)zg | c'2b | "F7"a2g | 
"Bb"g2_g | f3 | "F7"c=Bc | g2f | "Bb"B3 | "F7"zF/A/ c/e/ |] [P:B] "F7"d2c | z=B/c/ g/f/ | "Bb"=efb | 
zF/B/ d/e/ | "F7"d2c | z=B/c/ a/g/ | "Bb"=efb | zba | "Eb"a2g | "C7"z^f/g/ =e/c/ | "Bb"g2f | zfg | 
"F"a2c' | "C7"bag | ("F"f3 | f)z"_>Teil A"f |] [P:C] [K:Eb] "Eb"G/B/ e/d/ f/e/ | c'2b | gzg | g3 | 
G/B/ e/d/ f/e/ | c'2b | "Bb7"aza | abc' | d'2c' | a2f | (d3 | d)Be |  dAc | 
BFB | ("Eb"G3 | E)zz | G/B/ e/d/ f/e/ | c'2b | gzg | g3 | c'b(g | "C7"g)ba | 
"Fm"g3 | f3 | "Ab"a3 | c2a | ("Eb/Bb"g3 | g)ba | "Bb7"gBg | f2B | ("Eb"e3 | e)z"_Fine"z |] 
% wz02106  (Nov 3, 2016)

